src/components/Icon/svg-icon/main/magazine.svg

<svg xmlns="http://www.w3.org/2000/svg" xmlns:xlink="http://www.w3.org/1999/xlink" width="24" height="24" viewBox="0 0 24 24">
  <defs>
    <path id="magazine-a" d="M14.3333333,9.875 L15.6666667,9.875 C15.7118058,9.875 15.7552081,9.86360688 15.796875,9.84082031 C15.8385419,9.81803374 15.8732638,9.78613302 15.9010417,9.74511719 C15.9322918,9.70865867 15.9565971,9.66308621 15.9739583,9.60839844 C15.9913195,9.55371066 16,9.49674509 16,9.4375 C16,9.37825491 15.9913195,9.32128934 15.9739583,9.26660156 C15.9565971,9.21191379 15.9322918,9.16634133 15.9010417,9.12988281 C15.8732638,9.08886698 15.8385419,9.05696626 15.796875,9.03417969 C15.7552081,9.01139312 15.7118058,9 15.6666667,9 L14.3333333,9 C14.2881942,9 14.2447919,9.01139312 14.203125,9.03417969 C14.1614581,9.05696626 14.1267362,9.08886698 14.0989583,9.12988281 C14.0677082,9.16634133 14.0434029,9.21191379 14.0260417,9.26660156 C14.0086805,9.32128934 14,9.37825491 14,9.4375 C14,9.49674509 14.0086805,9.55371066 14.0260417,9.60839844 C14.0434029,9.66308621 14.0677082,9.70865867 14.0989583,9.74511719 C14.1267362,9.78613302 14.1614581,9.81803374 14.203125,9.84082031 C14.2447919,9.86360688 14.2881942,9.875 14.3333333,9.875 Z M14.3333333,7.875 L15.6666667,7.875 C15.7118058,7.875 15.7552081,7.86360688 15.796875,7.84082031 C15.8385419,7.81803374 15.8732638,7.78613302 15.9010417,7.74511719 C15.9322918,7.70865867 15.9565971,7.66308621 15.9739583,7.60839844 C15.9913195,7.55371066 16,7.49674509 16,7.4375 C16,7.37825491 15.9913195,7.32128934 15.9739583,7.26660156 C15.9565971,7.21191379 15.9322918,7.16634133 15.9010417,7.12988281 C15.8732638,7.08886698 15.8385419,7.05696626 15.796875,7.03417969 C15.7552081,7.01139312 15.7118058,7 15.6666667,7 L14.3333333,7 C14.2881942,7 14.2447919,7.01139312 14.203125,7.03417969 C14.1614581,7.05696626 14.1267362,7.08886698 14.0989583,7.12988281 C14.0677082,7.16634133 14.0434029,7.21191379 14.0260417,7.26660156 C14.0086805,7.32128934 14,7.37825491 14,7.4375 C14,7.49674509 14.0086805,7.55371066 14.0260417,7.60839844 C14.0434029,7.66308621 14.0677082,7.70865867 14.0989583,7.74511719 C14.1267362,7.78613302 14.1614581,7.81803374 14.203125,7.84082031 C14.2447919,7.86360688 14.2881942,7.875 14.3333333,7.875 Z M14.3333333,11.875 L15.6666667,11.875 C15.7118058,11.875 15.7552081,11.8636069 15.796875,11.8408203 C15.8385419,11.8180337 15.8732638,11.786133 15.9010417,11.7451172 C15.9322918,11.7086587 15.9565971,11.6630862 15.9739583,11.6083984 C15.9913195,11.5537107 16,11.4967451 16,11.4375 C16,11.3782549 15.9913195,11.3212893 15.9739583,11.2666016 C15.9565971,11.2119138 15.9322918,11.1663413 15.9010417,11.1298828 C15.8732638,11.088867 15.8385419,11.0569663 15.796875,11.0341797 C15.7552081,11.0113931 15.7118058,11 15.6666667,11 L14.3333333,11 C14.2881942,11 14.2447919,11.0113931 14.203125,11.0341797 C14.1614581,11.0569663 14.1267362,11.088867 14.0989583,11.1298828 C14.0677082,11.1663413 14.0434029,11.2119138 14.0260417,11.2666016 C14.0086805,11.3212893 14,11.3782549 14,11.4375 C14,11.4967451 14.0086805,11.5537107 14.0260417,11.6083984 C14.0434029,11.6630862 14.0677082,11.7086587 14.0989583,11.7451172 C14.1267362,11.786133 14.1614581,11.8180337 14.203125,11.8408203 C14.2447919,11.8636069 14.2881942,11.875 14.3333333,11.875 Z M8.4,15.875 L15.6,15.875 C15.6541669,15.875 15.7062498,15.8636069 15.75625,15.8408203 C15.8062502,15.8180337 15.8479165,15.786133 15.88125,15.7451172 C15.9187502,15.7086587 15.9479166,15.6630862 15.96875,15.6083984 C15.9895834,15.5537107 16,15.4967451 16,15.4375 C16,15.3782549 15.9895834,15.3212893 15.96875,15.2666016 C15.9479166,15.2119138 15.9187502,15.1663413 15.88125,15.1298828 C15.8479165,15.088867 15.8062502,15.0569663 15.75625,15.0341797 C15.7062498,15.0113931 15.6541669,15 15.6,15 L8.4,15 C8.34583306,15 8.29375025,15.0113931 8.24375,15.0341797 C8.19374975,15.0569663 8.1520835,15.088867 8.11875,15.1298828 C8.08124981,15.1663413 8.05208344,15.2119138 8.03125,15.2666016 C8.01041656,15.3212893 8,15.3782549 8,15.4375 C8,15.4967451 8.01041656,15.5537107 8.03125,15.6083984 C8.05208344,15.6630862 8.08124981,15.7086587 8.11875,15.7451172 C8.1520835,15.786133 8.19374975,15.8180337 8.24375,15.8408203 C8.29375025,15.8636069 8.34583306,15.875 8.4,15.875 Z M8.4,13.875 L15.6,13.875 C15.6541669,13.875 15.7062498,13.8636069 15.75625,13.8408203 C15.8062502,13.8180337 15.8479165,13.786133 15.88125,13.7451172 C15.9187502,13.7086587 15.9479166,13.6630862 15.96875,13.6083984 C15.9895834,13.5537107 16,13.4967451 16,13.4375 C16,13.3782549 15.9895834,13.3212893 15.96875,13.2666016 C15.9479166,13.2119138 15.9187502,13.1663413 15.88125,13.1298828 C15.8479165,13.088867 15.8062502,13.0569663 15.75625,13.0341797 C15.7062498,13.0113931 15.6541669,13 15.6,13 L8.4,13 C8.34583306,13 8.29375025,13.0113931 8.24375,13.0341797 C8.19374975,13.0569663 8.1520835,13.088867 8.11875,13.1298828 C8.08124981,13.1663413 8.05208344,13.2119138 8.03125,13.2666016 C8.01041656,13.3212893 8,13.3782549 8,13.4375 C8,13.4967451 8.01041656,13.5537107 8.03125,13.6083984 C8.05208344,13.6630862 8.08124981,13.7086587 8.11875,13.7451172 C8.1520835,13.786133 8.19374975,13.8180337 8.24375,13.8408203 C8.29375025,13.8636069 8.34583306,13.875 8.4,13.875 Z M17.5714286,5 L7.71428571,5 C7.57589217,5 7.44642917,5.00911449 7.32589286,5.02734375 C7.20535654,5.04557301 7.09151839,5.07519511 6.984375,5.11621094 C6.87723161,5.15266945 6.7790183,5.20052054 6.68973214,5.25976562 C6.60044598,5.31901071 6.51785752,5.38509078 6.44196429,5.45800781 C6.36607105,5.53548216 6.30133955,5.61979121 6.24776786,5.7109375 C6.19419616,5.80208379 6.14732163,5.9023432 6.10714286,6.01171875 C6.07142839,6.1210943 6.04464295,6.23730407 6.02678571,6.36035156 C6.00892848,6.48339905 6,6.61328057 6,6.75 L6,18.5625 C6,18.6217451 6.0111606,18.6787107 6.03348214,18.7333984 C6.05580368,18.7880862 6.08705337,18.8336587 6.12723214,18.8701172 C6.16294661,18.911133 6.20758902,18.9430337 6.26116071,18.9658203 C6.31473241,18.9886069 6.37053542,19 6.42857143,19 L15.8571429,19 C15.9151789,19 15.9709819,18.9886069 16.0245536,18.9658203 C16.0781253,18.9430337 16.1227677,18.911133 16.1584821,18.8701172 C16.1986609,18.8336587 16.2299106,18.7880862 16.2522321,18.7333984 C16.2745537,18.6787107 16.2857143,18.6217451 16.2857143,18.5625 L16.2857143,18.125 L17.5714286,18.125 C17.6294646,18.125 17.6852676,18.1136069 17.7388393,18.0908203 C17.792411,18.0680337 17.8370534,18.036133 17.8727679,17.9951172 C17.9129466,17.9586587 17.9441963,17.9130862 17.9665179,17.8583984 C17.9888394,17.8037107 18,17.7467451 18,17.6875 L18,5.4375 C18,5.37825491 17.9888394,5.32128934 17.9665179,5.26660156 C17.9441963,5.21191379 17.9129466,5.16634133 17.8727679,5.12988281 C17.8370534,5.08886698 17.792411,5.05696626 17.7388393,5.03417969 C17.6852676,5.01139312 17.6294646,5 17.5714286,5 Z M17,17 L7,17 L7,6.84615385 C7,6.7712336 7.00325518,6.70072148 7.00976562,6.63461538 C7.01627607,6.56850928 7.02821172,6.50901469 7.04557292,6.45612981 C7.06293411,6.39883785 7.08246517,6.34925902 7.10416667,6.30739183 C7.12586816,6.26552463 7.15407969,6.22916682 7.18880208,6.19831731 C7.21918418,6.16306072 7.25607617,6.13331342 7.29947917,6.10907452 C7.34288216,6.08483562 7.39062474,6.06390233 7.44270833,6.04627404 C7.49913223,6.03305282 7.55989551,6.0220353 7.625,6.01322115 C7.69010449,6.00440701 7.75954824,6 7.83333333,6 L17,6 L17,17 Z M12.5833333,7 L8.41666667,7 C8.36024277,7 8.3070749,7.01085059 8.25716146,7.03255208 C8.20724801,7.05425358 8.16276061,7.08463522 8.12369792,7.12369792 C8.08463522,7.15842031 8.05425358,7.20182266 8.03255208,7.25390625 C8.01085059,7.30598984 8,7.36024277 8,7.41666667 L8,11.5833333 C8,11.6397572 8.01085059,11.6929251 8.03255208,11.7428385 C8.05425358,11.792752 8.08463522,11.8372394 8.12369792,11.8763021 C8.15842031,11.9153648 8.20182266,11.9457464 8.25390625,11.9674479 C8.30598984,11.9891494 8.36024277,12 8.41666667,12 L12.5833333,12 C12.6397572,12 12.6929251,11.9891494 12.7428385,11.9674479 C12.792752,11.9457464 12.8372394,11.9153648 12.8763021,11.8763021 C12.9153648,11.8415797 12.9457464,11.7981773 12.9674479,11.7460938 C12.9891494,11.6940102 13,11.6397572 13,11.5833333 L13,7.41666667 C13,7.36024277 12.9891494,7.3070749 12.9674479,7.25716146 C12.9457464,7.20724801 12.9153648,7.16276061 12.8763021,7.12369792 C12.8415797,7.08463522 12.7981773,7.05425358 12.7460938,7.03255208 C12.6940102,7.01085059 12.6397572,7 12.5833333,7 Z"/>
  </defs>
  <use fill="#677078" xlink:href="#magazine-a"/>
</svg>

<svg xmlns="http://www.w3.org/2000/svg" xmlns:xlink="http://www.w3.org/1999/xlink" width="24" height="24"><defs><path id="a" d="M14.333 9.875h1.334a.268.268 0 00.13-.034.297.297 0 00.104-.096.387.387 0 00.073-.137.561.561 0 000-.341.387.387 0 00-.073-.137.297.297 0 00-.104-.096.268.268 0 00-.13-.034h-1.334a.268.268 0 00-.13.034.297.297 0 00-.104.096.387.387 0 00-.073.137.561.561 0 000 .341c.017.055.042.1.073.137a.297.297 0 00.104.096.268.268 0 00.13.034zm0-2h1.334a.268.268 0 00.13-.034.297.297 0 00.104-.096.387.387 0 00.073-.137.561.561 0 000-.341.387.387 0 00-.073-.137.297.297 0 00-.104-.096.268.268 0 00-.13-.034h-1.334a.268.268 0 00-.13.034.297.297 0 00-.104.096.387.387 0 00-.073.137.561.561 0 000 .341c.017.055.042.1.073.137a.297.297 0 00.104.096.268.268 0 00.13.034zm0 4h1.334a.268.268 0 00.13-.034.297.297 0 00.104-.096.387.387 0 00.073-.137.561.561 0 000-.341.387.387 0 00-.073-.137.297.297 0 00-.104-.096.268.268 0 00-.13-.034h-1.334a.268.268 0 00-.13.034.297.297 0 00-.104.096.387.387 0 00-.073.137.561.561 0 000 .341c.017.055.042.1.073.137a.297.297 0 00.104.096.268.268 0 00.13.034zm-5.933 4h7.2a.373.373 0 00.281-.13.372.372 0 00.088-.137.476.476 0 000-.341.372.372 0 00-.088-.137.373.373 0 00-.281-.13H8.4a.373.373 0 00-.281.13.372.372 0 00-.088.137.476.476 0 000 .341c.021.055.05.1.088.137a.373.373 0 00.281.13zm0-2h7.2a.373.373 0 00.281-.13.372.372 0 00.088-.137.476.476 0 000-.341.372.372 0 00-.088-.137.373.373 0 00-.281-.13H8.4a.373.373 0 00-.281.13.372.372 0 00-.088.137.476.476 0 000 .341c.021.055.05.1.088.137a.373.373 0 00.281.13zM17.571 5H7.714a2.6 2.6 0 00-.388.027c-.12.019-.234.048-.342.09a1.27 1.27 0 00-.294.143 1.307 1.307 0 00-.442.451c-.054.091-.1.191-.14.3-.037.11-.063.226-.081.35A2.713 2.713 0 006 6.75v11.813c0 .059.011.116.033.17a.37.37 0 00.094.137c.036.041.08.073.134.096.054.023.11.034.168.034h9.428a.423.423 0 00.168-.034.363.363 0 00.133-.096.37.37 0 00.094-.137.448.448 0 00.034-.17v-.438h1.285a.423.423 0 00.168-.034.363.363 0 00.134-.096.37.37 0 00.094-.137.448.448 0 00.033-.17V5.438a.448.448 0 00-.033-.171.37.37 0 00-.094-.137.363.363 0 00-.134-.096A.423.423 0 0017.57 5zM17 17H7V6.846c0-.075.003-.145.01-.211a.835.835 0 01.036-.179.878.878 0 01.058-.149.376.376 0 01.085-.109.405.405 0 01.11-.089.856.856 0 01.144-.063A1.555 1.555 0 017.833 6H17v11zM12.583 7H8.417c-.057 0-.11.01-.16.033a.43.43 0 00-.133.09.353.353 0 00-.091.13.42.42 0 00-.033.164v4.166c0 .057.01.11.033.16a.43.43 0 00.09.133c.035.04.079.07.13.091a.42.42 0 00.164.033h4.166c.057 0 .11-.01.16-.033a.43.43 0 00.133-.09.353.353 0 00.091-.13.42.42 0 00.033-.164V7.417c0-.057-.01-.11-.033-.16a.43.43 0 00-.09-.133.353.353 0 00-.13-.091.42.42 0 00-.164-.033z"/></defs><use fill="#677078" xlink:href="#a"/></svg>
